img/customer-logo-1.svg

<svg width="192" height="36" viewBox="0 0 192 36" fill="none" xmlns="http://www.w3.org/2000/svg">
<path d="M56.4837 15.4739C54.3512 15.7364 53.006 16.3598 52.1202 17.2456C51.3984 17.9673 51.0376 18.8532 51.0376 19.739C51.0376 21.3466 52.1858 22.4948 53.6294 22.4948C54.5152 22.4948 55.401 22.134 55.8603 21.609C56.0244 21.445 56.2212 21.0841 56.2212 20.7232L56.4837 15.4739ZM60.1254 24.9882C58.3537 24.9882 56.7461 23.84 56.2868 22.0683C55.401 23.6759 53.695 24.9882 51.4969 24.9882C49.0035 24.9882 46.871 23.0198 46.871 20.5592C46.871 17.0815 50.1517 14.5881 56.3853 14.5225V13.6367C56.4837 11.1433 55.0401 9.63414 52.5467 9.63414C50.7751 9.63414 48.905 10.7824 47.6583 12.2916C47.5599 12.39 47.035 11.8323 47.035 11.7667C48.6426 8.55147 51.5625 6.77984 54.5808 6.77984C58.0585 6.77984 60.5519 9.27325 60.4534 13.4399L60.191 20.3623C60.191 21.9699 60.9127 22.6589 61.7001 22.6589C62.5859 22.6589 63.2093 21.9371 63.5702 20.9857C63.5702 20.8873 64.0951 21.1497 64.0951 21.2481C64.1279 23.6431 62.3563 24.9882 60.1254 24.9882ZM82.2707 24.3649H77.5464C77.4479 24.3649 77.4479 23.4791 77.5464 23.4791C79.5148 23.2166 79.7773 23.0198 79.7773 19.214V13.8664C79.7773 11.4714 78.3666 9.76537 76.2997 9.76537C74.8889 9.76537 73.5438 10.4871 72.9204 11.373C72.4611 11.8979 72.1987 12.8821 72.1987 14.1288V19.1812C72.1987 23.0198 72.658 23.1838 74.5936 23.4463C74.5936 23.4463 74.6921 24.3321 74.5936 24.3321H65.5715C65.473 24.3321 65.473 23.4463 65.473 23.4463C67.6056 23.0854 67.868 22.987 67.868 19.1812V12.6853C67.868 8.78113 67.4087 8.58428 65.1122 8.2562C64.9481 8.2562 65.0137 7.37039 65.1122 7.37039H71.8706V11.2745H71.969C73.4782 8.42024 75.8075 6.74704 78.629 6.74704C81.8442 6.74704 84.3048 9.24044 84.3048 13.3414V19.1156C84.3048 22.9542 84.6657 23.1182 86.7982 23.3807C86.9622 23.3807 86.8966 24.2665 86.7982 24.2665C85.4859 24.3649 83.5174 24.3649 82.2707 24.3649ZM96.5749 24.9882C91.2273 24.9882 87.7824 20.8216 87.7824 15.9989C87.7824 10.848 91.2601 6.74704 96.9358 6.74704C99.5933 6.74704 100.938 7.63285 101.726 7.63285C102.087 7.63285 102.448 7.37039 102.612 6.91108C102.612 6.81265 103.694 6.81265 103.694 6.91108V13.3086C103.694 13.407 102.612 13.407 102.612 13.3086C101.201 10.3887 99.2324 7.89532 96.9358 7.89532C94.0816 7.89532 92.4083 10.9136 92.4083 15.0803C92.4083 19.5093 94.7049 22.462 97.9201 22.462C100.053 22.462 102.448 20.9529 103.432 19.2469C103.53 19.0828 104.219 19.4109 104.219 19.6077C103.071 22.6589 100.053 24.9882 96.5749 24.9882ZM118.195 13.7023V12.4556C118.195 9.69975 116.85 8.09216 115.177 8.09216C113.045 8.09216 111.437 10.3887 111.076 13.7023H118.195ZM111.076 15.7364C111.076 19.5749 113.209 22.4948 116.85 22.4948C118.983 22.4948 121.115 21.0841 122.264 19.2797C122.264 19.1812 122.985 19.4437 122.985 19.6406C122.001 22.6589 118.819 24.9882 115.243 24.9882C109.633 24.9882 106.352 20.8873 106.352 15.9989C106.352 11.1105 109.829 6.74704 115.702 6.74704C120.131 6.74704 123.084 9.66694 123.346 13.6695V14.9162H111.24C111.076 15.1131 111.076 15.5724 111.076 15.7364ZM132.237 24.9882C129.481 24.9882 127.086 24.2665 126.266 23.7415C126.168 23.6431 125.905 21.3466 125.905 19.0172C125.905 18.9188 126.988 18.8532 126.988 19.0172C128.399 22.134 130.466 23.9056 132.664 23.9056C134.534 23.9056 135.879 22.9213 135.879 21.4122C135.879 19.6406 133.746 18.8204 131.614 17.8689C129.022 16.8847 126.102 15.5724 126.102 12.2588C126.102 9.66694 128.333 7.0095 132.5 7.0095C134.271 7.0095 135.42 7.73128 136.24 7.73128C136.601 7.73128 136.961 7.46881 137.224 7.0095C137.224 6.91108 138.307 6.91108 138.307 7.0095V12.8821C138.307 12.9805 137.224 12.9805 137.224 12.8821C135.813 10.2247 134.107 8.35462 132.073 8.35462C130.203 8.35462 129.317 9.60133 129.317 10.5856C129.317 12.3572 131.351 13.079 133.484 13.9648C136.076 15.0474 139.094 16.3598 139.094 19.739C139.094 22.5933 136.404 24.9882 132.237 24.9882ZM141.03 9.24044C140.767 9.24044 140.669 8.51866 140.931 8.35462C142.801 6.68142 145.918 3.82713 147.591 2.0555C147.69 1.95708 148.313 2.0555 148.313 2.21954V7.46881H154.35C154.514 7.46881 154.514 9.14202 154.35 9.14202H148.313V19.0172C148.313 21.2481 149.658 22.2324 151.069 22.2324C152.152 22.2324 153.3 21.3466 153.825 20.2639C153.825 20.1655 154.547 20.5264 154.547 20.6248C153.825 23.0198 151.528 24.8898 148.936 24.8898C146.181 24.8898 143.95 23.1182 143.95 19.6406V9.24044H141.03ZM169.146 12.0947C168.621 12.0947 167.276 10.4871 166.292 10.4871C165.832 10.4871 165.308 10.7496 164.881 11.2089C164.159 11.9307 163.536 13.6039 163.536 15.0474V19.3125C163.536 23.2166 164.159 23.315 166.193 23.5775C166.193 23.5775 166.292 24.4633 166.193 24.4633H156.777C156.679 24.4633 156.679 23.5775 156.777 23.5775C158.91 23.2166 159.172 23.1182 159.172 19.3125V12.8165C159.172 8.97797 158.713 8.71551 156.417 8.38743C156.253 8.38743 156.318 7.50162 156.417 7.50162H163.273V11.9307H163.437C163.602 11.4058 163.962 10.7824 164.225 10.1591C165.472 8.12497 166.981 6.87827 168.588 6.87827C170.097 6.87827 171.344 8.02655 171.344 9.27325C171.443 10.684 169.573 12.0947 169.146 12.0947ZM187.551 14.3913L181.744 29.2533C179.71 34.5025 177.84 35.5524 175.347 35.5524C173.936 35.5524 172.328 34.8306 172.328 34.4041C172.23 33.6823 173.214 31.1233 173.739 31.1233C173.903 31.1233 176.036 32.1076 177.118 32.1076C178.628 32.1076 179.612 31.1233 180.399 28.9908L181.482 26.1365C181.121 24.7258 176.856 15.3755 176.331 14.1288C175.248 11.6354 174.559 9.69975 173.838 8.97798C173.378 8.51867 172.952 8.35462 171.705 8.19058C171.607 8.19058 171.607 7.30477 171.705 7.30477C172.853 7.30477 175.248 7.4032 176.593 7.4032C177.939 7.4032 180.235 7.30477 181.383 7.30477C181.482 7.30477 181.482 8.19058 181.383 8.19058C178.726 8.55147 178.988 9.43728 180.399 12.9805L183.516 20.5264L186.009 14.0304C186.895 11.7995 187.354 10.4871 187.354 9.66694C187.354 8.6827 186.731 8.32182 184.861 8.2562C184.763 8.2562 184.763 7.27196 184.861 7.27196C186.108 7.27196 187.715 7.37039 188.765 7.37039C189.553 7.37039 190.373 7.27196 191.882 7.27196C191.98 7.27196 192.046 8.2562 191.882 8.2562C190.898 8.35462 190.471 8.61709 189.913 9.14202C189.225 9.86379 188.7 11.3073 187.551 14.3913Z" fill="#78788B"/>
<path d="M26.6941 6.32049C23.5773 2.94128 20.4606 3.4662 19.9357 3.56463C20.1981 3.66305 20.4606 9.53567 23.7742 12.6196C26.0051 14.6537 30.5326 13.9647 30.5326 13.9647C30.5326 13.9647 29.7452 9.60128 26.6941 6.32049ZM30.4342 17.7705C29.45 17.7705 25.4474 18.1313 22.7899 21.4121C20.0341 24.8898 20.1325 27.6456 19.5092 28.269C20.0341 28.433 25.6442 28.9908 28.0392 25.3491C30.3358 21.9699 30.4342 18.3282 30.4342 17.7705ZM6.09072 15.3755C6.71407 15.4739 8.84658 18.2298 12.6851 18.5907C16.8517 19.05 18.2953 16.9174 18.3609 16.9174C18.3609 16.655 14.9817 13.0133 11.2416 13.0133C8.64974 13.0789 6.09072 15.3755 6.09072 15.3755ZM21.2808 17.2455C21.1824 17.3439 17.7375 21.9699 9.53555 20.7232C2.94116 19.6405 0.546178 15.9988 0.119675 15.9332C0.644601 15.2114 5.63141 11.2089 11.4056 11.3073C17.0814 11.4713 21.2808 14.6865 21.2808 14.6865H24.9225C22.0026 13.8007 18.4265 12.1931 16.8189 8.64986C15.4082 5.36906 15.6706 3.40059 15.0473 0.64472C15.0473 0.64472 21.6417 0.119797 26.6941 3.40059C31.32 6.41892 33.879 14.424 33.9774 14.6865H36.8317L36.2084 0.447876L39.7516 0.546296C39.1283 4.2864 39.9157 30.9592 39.7516 30.9592C39.3908 31.0577 36.3724 31.2217 36.11 30.4999C36.11 30.4999 36.8317 17.4424 36.8974 17.1799H34.1415C34.1415 17.344 33.879 24.7257 28.2689 28.6627C22.6587 32.5668 14.588 31.4185 14.588 31.4185C15.5722 29.9094 14.588 28.3018 17.4423 23.9383C20.723 18.9515 25.0865 17.1799 24.9881 17.1799C24.7584 17.2455 21.3792 17.2455 21.2808 17.2455Z" fill="#78788B"/>
</svg>

<svg width="192" height="36" fill="none" xmlns="http://www.w3.org/2000/svg"><path d="M56.484 15.474c-2.133.262-3.478.886-4.364 1.772-.722.721-1.082 1.607-1.082 2.493 0 1.608 1.148 2.756 2.591 2.756.886 0 1.772-.361 2.231-.886a1.38 1.38 0 00.361-.886l.263-5.25zm3.641 9.514c-1.771 0-3.379-1.148-3.838-2.92-.886 1.608-2.592 2.92-4.79 2.92-2.493 0-4.626-1.968-4.626-4.429 0-3.478 3.28-5.97 9.514-6.037v-.885c.099-2.494-1.345-4.003-3.838-4.003-1.772 0-3.642 1.148-4.889 2.658-.098.098-.623-.46-.623-.525 1.608-3.216 4.528-4.987 7.546-4.987 3.477 0 5.97 2.493 5.872 6.66l-.262 6.922c0 1.608.722 2.297 1.51 2.297.885 0 1.508-.722 1.87-1.673 0-.099.524.164.524.262.033 2.395-1.739 3.74-3.97 3.74zm22.146-.623h-4.725c-.098 0-.098-.886 0-.886 1.969-.262 2.231-.46 2.231-4.265v-5.348c0-2.395-1.41-4.1-3.477-4.1-1.411 0-2.756.721-3.38 1.607-.459.525-.721 1.51-.721 2.756v5.052c0 3.839.459 4.003 2.395 4.265 0 0 .098.886 0 .886h-9.022c-.099 0-.099-.886-.099-.886 2.133-.36 2.395-.459 2.395-4.265v-6.496c0-3.904-.46-4.1-2.756-4.429-.164 0-.098-.886 0-.886h6.759v3.904h.098c1.51-2.854 3.839-4.527 6.66-4.527 3.215 0 5.676 2.493 5.676 6.594v5.775c0 3.838.36 4.002 2.493 4.265.164 0 .099.886 0 .886-1.312.098-3.28.098-4.527.098zm14.304.623c-5.348 0-8.793-4.166-8.793-8.99 0-5.15 3.478-9.251 9.154-9.251 2.657 0 4.002.886 4.79.886.361 0 .722-.263.886-.722 0-.098 1.082-.098 1.082 0v6.398c0 .098-1.082.098-1.082 0-1.411-2.92-3.38-5.414-5.676-5.414-2.854 0-4.528 3.019-4.528 7.185 0 4.43 2.297 7.382 5.512 7.382 2.133 0 4.528-1.51 5.512-3.215.098-.164.787.164.787.36-1.148 3.052-4.166 5.381-7.644 5.381zm21.62-11.286v-1.246c0-2.756-1.345-4.364-3.018-4.364-2.132 0-3.74 2.297-4.101 5.61h7.119zm-7.119 2.034c0 3.839 2.133 6.759 5.774 6.759 2.133 0 4.265-1.41 5.414-3.215 0-.099.721.164.721.36-.984 3.019-4.166 5.348-7.742 5.348-5.61 0-8.891-4.1-8.891-8.99 0-4.887 3.477-9.251 9.35-9.251 4.429 0 7.382 2.92 7.644 6.922v1.247H111.24c-.164.197-.164.656-.164.82zm21.161 9.252c-2.756 0-5.151-.721-5.971-1.247-.098-.098-.361-2.394-.361-4.724 0-.098 1.083-.164 1.083 0 1.411 3.117 3.478 4.889 5.676 4.889 1.87 0 3.215-.985 3.215-2.494 0-1.771-2.133-2.592-4.265-3.543-2.592-.984-5.512-2.297-5.512-5.61 0-2.592 2.231-5.25 6.398-5.25 1.771 0 2.92.722 3.74.722.361 0 .721-.262.984-.721 0-.099 1.083-.099 1.083 0v5.872c0 .098-1.083.098-1.083 0-1.411-2.657-3.117-4.527-5.151-4.527-1.87 0-2.756 1.246-2.756 2.23 0 1.772 2.034 2.494 4.167 3.38 2.592 1.082 5.61 2.395 5.61 5.774 0 2.854-2.69 5.25-6.857 5.25zM141.03 9.24c-.263 0-.361-.721-.099-.885 1.87-1.674 4.987-4.528 6.66-6.3.099-.098.722 0 .722.165v5.249h6.037c.164 0 .164 1.673 0 1.673h-6.037v9.875c0 2.231 1.345 3.215 2.756 3.215 1.083 0 2.231-.885 2.756-1.968 0-.098.722.262.722.36-.722 2.396-3.019 4.266-5.611 4.266-2.755 0-4.986-1.772-4.986-5.25V9.24h-2.92zm28.116 2.855c-.525 0-1.87-1.608-2.854-1.608-.46 0-.984.263-1.411.722-.722.722-1.345 2.395-1.345 3.838v4.265c0 3.905.623 4.003 2.657 4.265 0 0 .099.886 0 .886h-9.416c-.098 0-.098-.886 0-.886 2.133-.36 2.395-.459 2.395-4.265v-6.496c0-3.838-.459-4.1-2.755-4.429-.164 0-.099-.885 0-.885h6.856v4.429h.164c.165-.525.525-1.149.788-1.772 1.247-2.034 2.756-3.28 4.363-3.28 1.509 0 2.756 1.148 2.756 2.394.099 1.411-1.771 2.822-2.198 2.822zm18.405 2.296l-5.807 14.862c-2.034 5.25-3.904 6.3-6.397 6.3-1.411 0-3.019-.722-3.019-1.149-.098-.722.886-3.28 1.411-3.28.164 0 2.297.984 3.379.984 1.51 0 2.494-.985 3.281-3.117l1.083-2.854c-.361-1.411-4.626-10.761-5.151-12.008-1.083-2.494-1.772-4.43-2.493-5.151-.46-.46-.886-.623-2.133-.787-.098 0-.098-.886 0-.886 1.148 0 3.543.098 4.888.098 1.346 0 3.642-.098 4.79-.098.099 0 .099.886 0 .886-2.657.36-2.395 1.246-.984 4.79l3.117 7.545 2.493-6.496c.886-2.23 1.345-3.543 1.345-4.363 0-.984-.623-1.345-2.493-1.41-.098 0-.098-.985 0-.985 1.247 0 2.854.098 3.904.098.788 0 1.608-.098 3.117-.098.098 0 .164.984 0 .984-.984.099-1.411.361-1.969.886-.688.722-1.213 2.165-2.362 5.25zM26.694 6.32c-3.117-3.379-6.233-2.854-6.758-2.755.262.098.525 5.97 3.838 9.055 2.231 2.034 6.759 1.345 6.759 1.345S29.745 9.6 26.694 6.32zm3.74 11.45c-.984 0-4.987.361-7.644 3.642-2.756 3.478-2.657 6.234-3.28 6.857.524.164 6.134.722 8.53-2.92 2.296-3.38 2.394-7.02 2.394-7.579zM6.091 15.376c.623.098 2.756 2.854 6.594 3.215 4.167.459 5.61-1.674 5.676-1.674 0-.262-3.38-3.904-7.12-3.904-2.591.066-5.15 2.363-5.15 2.363zm15.19 1.87c-.099.098-3.543 4.724-11.745 3.477C2.94 19.641.546 16 .12 15.933c.525-.722 5.511-4.724 11.286-4.626 5.675.164 9.875 3.38 9.875 3.38h3.642c-2.92-.886-6.496-2.494-8.104-6.037-1.41-3.28-1.148-5.25-1.772-8.005 0 0 6.595-.525 11.647 2.756 4.626 3.018 7.185 11.023 7.283 11.286h2.855L36.208.447l3.544.1c-.624 3.74.164 30.412 0 30.412-.361.099-3.38.263-3.642-.46 0 0 .722-13.057.787-13.32h-2.755c0 .165-.263 7.547-5.873 11.484-5.61 3.904-13.681 2.756-13.681 2.756.984-1.51 0-3.117 2.854-7.48 3.281-4.988 7.645-6.76 7.546-6.76-.23.067-3.609.067-3.707.067z" fill="#78788B"/></svg>
